ZUCCAL
CUT["Der Gemsjaeger"
    DURT OBN AUF DER ALMA]
REG[Europa, Mitteleuropa, Oberoesterreich]
KEY[Z1296  08  G 3/4]
MEL[-5_  3_3_.4  455_.
    3  544346  5__0
    1  3_3_.4  655_.
    3  544342  1__
    1_  2_4_.2  3_5_.
    3  544346  5_.0
    -5_  3_3_.4  655_.
    3  544342  1__
    +1_  5__3_  544342  1__ //] >>
FCT[Jaeger - Lied]
